X:50
T:Blue Bells of Scotland
M:C
L:1/4
K:G
%%MIDI channel 1
%%MIDI program 72
%%MIDI transpose 8
%%MIDI grace 1/8
%%MIDI ratio 3 1
d|g2 f e|d2 e f/g/|B B c A |G2-G d|g2 f e|d2 e fg|B B c A|G2-G||
d|B G B d|g2 e f/g/|f d e ^c|d2 e f|g2 f e|d2 e f/g/|B B c A|G2-G||
